icons/fingerprint-fill.svg

<svg xmlns="http://www.w3.org/2000/svg" width="24" height="24" fill="none"><g clip-path="url(#a)"><g><path fill="#121212" d="M17 13V14C17 16.77 16.336 19.445 15.085 21.846L14.858 22.266L13.111 21.292C14.271 19.212 14.921 16.882 14.993 14.456L15 14V13H17ZM11 10H13V14L12.995 14.379C12.9194 17.1167 11.9772 19.7598 10.304 21.928L10.073 22.218L8.523 20.954C10.0494 19.0899 10.918 16.7741 10.994 14.366L11 14V10ZM12 6.00001C13.3261 6.00001 14.5979 6.52679 15.5355 7.46448C16.4732 8.40216 17 9.67393 17 11H15C15 10.2044 14.6839 9.4413 14.1213 8.87869C13.5587 8.31608 12.7956 8.00001 12 8.00001C11.2043 8.00001 10.4413 8.31608 9.87868 8.87869C9.31607 9.4413 9 10.2044 9 11V14C9 16.235 8.18 18.344 6.729 19.977L6.517 20.207L5.069 18.827C6.23896 17.6029 6.92324 15.9948 6.994 14.303L7 14V11C7 9.67393 7.52678 8.40216 8.46447 7.46448C9.40215 6.52679 10.6739 6.00001 12 6.00001ZM12 2.00001C14.3869 2.00001 16.6761 2.94822 18.364 4.63605C20.0518 6.32388 21 8.61306 21 11V14C21 15.698 20.798 17.37 20.403 18.99L20.264 19.529L18.334 19.003C18.726 17.566 18.947 16.081 18.992 14.568L19 14V11C19 9.70087 18.6385 8.42737 17.9559 7.32201C17.2733 6.21666 16.2965 5.32307 15.135 4.74125C13.9734 4.15943 12.6728 3.91233 11.3788 4.02762C10.0848 4.1429 8.84842 4.61601 7.808 5.39401L6.383 3.96801C7.97647 2.69129 9.95815 1.99698 12 2.00001ZM4.968 5.38301L6.394 6.80801C5.53633 7.95124 5.05106 9.3306 5.004 10.759L5 11L5.004 13C5.004 14.12 4.74 15.203 4.242 16.177L4.086 16.467L2.349 15.475C2.729 14.81 2.951 14.068 2.995 13.292L3.004 13V11C2.99807 8.95834 3.69115 6.97615 4.968 5.38301Z"/></g></g><defs><clipPath id="a"><rect width="24" height="24" fill="white"/></clipPath></defs></svg>

<svg width="24" height="24" fill="none" xmlns="http://www.w3.org/2000/svg"><g clip-path="url(#a)"><path d="M17 13v1c0 2.77-.664 5.445-1.915 7.846l-.227.42-1.747-.974c1.16-2.08 1.81-4.41 1.882-6.836L15 14v-1h2Zm-6-3h2v4l-.005.379a12.941 12.941 0 0 1-2.691 7.549l-.231.29-1.55-1.264a10.944 10.944 0 0 0 2.471-6.588L11 14v-4Zm1-4a5 5 0 0 1 5 5h-2a3 3 0 0 0-6 0v3c0 2.235-.82 4.344-2.271 5.977l-.212.23-1.448-1.38a6.969 6.969 0 0 0 1.925-4.524L7 14v-3a5 5 0 0 1 5-5Zm0-4a9 9 0 0 1 9 9v3c0 1.698-.202 3.37-.597 4.99l-.139.539-1.93-.526c.392-1.437.613-2.922.658-4.435L19 14v-3A7 7 0 0 0 7.808 5.394L6.383 3.968A8.962 8.962 0 0 1 12 2ZM4.968 5.383l1.426 1.425a6.966 6.966 0 0 0-1.39 3.951L5 11l.004 2c0 1.12-.264 2.203-.762 3.177l-.156.29-1.737-.992a4.95 4.95 0 0 0 .646-2.183L3.004 13v-2a8.94 8.94 0 0 1 1.964-5.617Z" /></g><defs><clipPath id="a"><path fill="#fff" d="M0 0h24v24H0z"/></clipPath></defs></svg>
